static/img/kroki/238e8cdbc69ef80debea87150d17d84b.svg

<?xml version="1.0" encoding="us-ascii" standalone="no"?><svg xmlns="http://www.w3.org/2000/svg" xmlns:xlink="http://www.w3.org/1999/xlink" contentStyleType="text/css" height="374px" preserveAspectRatio="none" style="width:448px;height:374px;" version="1.1" viewBox="0 0 448 374" width="448px" zoomAndPan="magnify"><defs/><g><!--class digitalocean_container_registry_repository_tag--><g id="elem_digitalocean_container_registry_repository_tag"><rect codeLine="23" fill="#3D176E" height="39.7891" id="digitalocean_container_registry_repository_tag" rx="2.5" ry="2.5" style="stroke:#000D19;stroke-width:0.5;" width="433" x="7" y="328.58"/><ellipse cx="22" cy="348.4745" fill="#ADD1B2" rx="11" ry="11" style="stroke:#181818;stroke-width:1.0;"/><path d="M24.9688,354.1152 Q24.3906,354.412 23.75,354.5527 Q23.1094,354.7089 22.4063,354.7089 Q19.9063,354.7089 18.5781,353.0683 Q17.2656,351.412 17.2656,348.287 Q17.2656,345.162 18.5781,343.5058 Q19.9063,341.8495 22.4063,341.8495 Q23.1094,341.8495 23.75,342.0058 Q24.4063,342.162 24.9688,342.4589 L24.9688,345.1777 Q24.3438,344.5995 23.75,344.3339 Q23.1563,344.0527 22.5313,344.0527 Q21.1875,344.0527 20.5,345.1308 Q19.8125,346.1933 19.8125,348.287 Q19.8125,350.3808 20.5,351.4589 Q21.1875,352.5214 22.5313,352.5214 Q23.1563,352.5214 23.75,352.2558 Q24.3438,351.9745 24.9688,351.3964 L24.9688,354.1152 Z " fill="#000000"/><text fill="#D9B8FF" font-family="Helvetica" font-size="17" lengthAdjust="spacing" textLength="391" x="41" y="354.3598">digitalocean_container_registry_repository_tag</text></g><!--class digitalocean_resource--><g id="elem_digitalocean_resource"><rect codeLine="26" fill="#3D176E" height="39.7891" id="digitalocean_resource" rx="2.5" ry="2.5" style="stroke:#000D19;stroke-width:0.5;" width="223" x="218" y="167.79"/><ellipse cx="233" cy="187.6845" fill="#ADD1B2" rx="11" ry="11" style="stroke:#181818;stroke-width:1.0;"/><path d="M235.9688,193.3252 Q235.3906,193.622 234.75,193.7627 Q234.1094,193.9189 233.4063,193.9189 Q230.9063,193.9189 229.5781,192.2783 Q228.2656,190.622 228.2656,187.497 Q228.2656,184.372 229.5781,182.7158 Q230.9063,181.0595 233.4063,181.0595 Q234.1094,181.0595 234.75,181.2158 Q235.4063,181.372 235.9688,181.6689 L235.9688,184.3877 Q235.3438,183.8095 234.75,183.5439 Q234.1563,183.2627 233.5313,183.2627 Q232.1875,183.2627 231.5,184.3408 Q230.8125,185.4033 230.8125,187.497 Q230.8125,189.5908 231.5,190.6689 Q232.1875,191.7314 233.5313,191.7314 Q234.1563,191.7314 234.75,191.4658 Q235.3438,191.1845 235.9688,190.6064 L235.9688,193.3252 Z " fill="#000000"/><text fill="#D9B8FF" font-family="Helvetica" font-size="17" lengthAdjust="spacing" textLength="181" x="252" y="193.5698">digitalocean_resource</text></g><!--class resource--><g id="elem_resource"><rect codeLine="29" fill="#3D176E" height="39.7891" id="resource" rx="2.5" ry="2.5" style="stroke:#000D19;stroke-width:0.5;" width="113" x="144" y="7"/><ellipse cx="159" cy="26.8945" fill="#ADD1B2" rx="11" ry="11" style="stroke:#181818;stroke-width:1.0;"/><path d="M161.9688,32.5352 Q161.3906,32.832 160.75,32.9727 Q160.1094,33.1289 159.4063,33.1289 Q156.9063,33.1289 155.5781,31.4883 Q154.2656,29.832 154.2656,26.707 Q154.2656,23.582 155.5781,21.9258 Q156.9063,20.2695 159.4063,20.2695 Q160.1094,20.2695 160.75,20.4258 Q161.4063,20.582 161.9688,20.8789 L161.9688,23.5977 Q161.3438,23.0195 160.75,22.7539 Q160.1563,22.4727 159.5313,22.4727 Q158.1875,22.4727 157.5,23.5508 Q156.8125,24.6133 156.8125,26.707 Q156.8125,28.8008 157.5,29.8789 Q158.1875,30.9414 159.5313,30.9414 Q160.1563,30.9414 160.75,30.6758 Q161.3438,30.3945 161.9688,29.8164 L161.9688,32.5352 Z " fill="#000000"/><text fill="#D9B8FF" font-family="Helvetica" font-size="17" lengthAdjust="spacing" textLength="71" x="178" y="32.7798">resource</text></g><!--reverse link digitalocean_resource to digitalocean_container_registry_repository_tag--><g id="link_digitalocean_resource_digitalocean_container_registry_repository_tag"><path codeLine="32" d="M306.7175,222.8116 C286.3475,253.3316 256.73,297.69 236.33,328.25 " fill="none" id="digitalocean_resource-backto-digitalocean_container_registry_repository_tag" style="stroke:#FFAF37;stroke-width:2.0;"/><polygon fill="none" points="316.71,207.84,301.7269,219.4808,311.708,226.1425,316.71,207.84" style="stroke:#FFAF37;stroke-width:2.0;"/></g><!--reverse link resource to digitalocean_container_registry_repository_tag--><g id="link_resource_digitalocean_container_registry_repository_tag"><path codeLine="33" d="M198.6438,65.0706 C197.1138,97.9706 195.74,149.28 200.5,207.58 C204.05,251 213.68,301.26 219.29,328.14 " fill="none" id="resource-backto-digitalocean_container_registry_repository_tag" style="stroke:#FFAF37;stroke-width:2.0;"/><polygon fill="none" points="199.48,47.09,192.6503,64.7918,204.6373,65.3493,199.48,47.09" style="stroke:#FFAF37;stroke-width:2.0;"/></g><!--reverse link resource to digitalocean_resource--><g id="link_resource_digitalocean_resource"><path codeLine="34" d="M227.4086,61.0217 C252.1986,91.5417 289.06,136.9 313.88,167.46 " fill="none" id="resource-backto-digitalocean_resource" style="stroke:#FFAF37;stroke-width:2.0;"/><polygon fill="none" points="216.06,47.05,222.7514,64.8046,232.0658,57.2389,216.06,47.05" style="stroke:#FFAF37;stroke-width:2.0;"/></g><!--SRC=[jP1DJm9138Rl-oicuKm24br8l229qGinufsKcSuoONUwwNGb-F7VNKJCiCj7F7Xh-ZvjtxTBPr1XKSf65LWia4CILiwNm52eCJEj9vGJguwrO0TfKxmdBnU1AHIe7Z1_HN4QciJBqkcLnn3KLIJTWLvbJ9Ktk_N2u4CjePU8ckGGmbY4tQ8IZCoOqM9eRPDiBkqCJ3-zmHP6R91_a5wlP_gZ9dBnrDdSlyJClQ7gnq-Rac3BPkl4DtNMvPQ8JBQ2xlMJ7f_06ESpTHtrddUUs2CVz6TBCBJUqXRo49y9Wemacn8dhLGu6XgR7eKVJy69thvE6PSvWPmqWf_hEWQusjESCND1U5CN9GKdL9S2cNfFaizZauo1AjOO0uUzu_ZjHxVR_QE9vF-czrho1G00]--></g></svg>

<svg xmlns="http://www.w3.org/2000/svg" width="448" height="374" viewBox="0 0 448 374"><rect width="433" height="39.789" x="7" y="328.58" fill="#3D176E" rx="2.5" ry="2.5" style="stroke:#000d19;stroke-width:.5"/><circle cx="22" cy="348.474" r="11" fill="#ADD1B2" style="stroke:#181818;stroke-width:1"/><path d="M24.969 354.115q-.578.297-1.219.438-.64.156-1.344.156-2.5 0-3.828-1.64-1.312-1.657-1.312-4.782t1.312-4.781q1.328-1.656 3.828-1.656.703 0 1.344.156.656.156 1.219.453v2.719q-.625-.579-1.219-.844-.594-.281-1.219-.281-1.343 0-2.031 1.078-.687 1.062-.687 3.156t.687 3.172q.688 1.062 2.031 1.062.625 0 1.219-.265.594-.281 1.219-.86z"/><text x="41" y="354.36" fill="#D9B8FF" font-family="Helvetica" font-size="17" textLength="391">digitalocean_container_registry_repository_tag</text><rect width="223" height="39.789" x="218" y="167.79" fill="#3D176E" rx="2.5" ry="2.5" style="stroke:#000d19;stroke-width:.5"/><circle cx="233" cy="187.685" r="11" fill="#ADD1B2" style="stroke:#181818;stroke-width:1"/><path d="M235.969 193.325q-.578.297-1.219.438-.64.156-1.344.156-2.5 0-3.828-1.64-1.312-1.657-1.312-4.782t1.312-4.781q1.328-1.656 3.828-1.656.703 0 1.344.156.656.156 1.219.453v2.719q-.625-.578-1.219-.844-.594-.281-1.219-.281-1.344 0-2.031 1.078-.687 1.062-.687 3.156t.687 3.172q.688 1.062 2.031 1.062.625 0 1.219-.265.594-.281 1.219-.86z"/><text x="252" y="193.57" fill="#D9B8FF" font-family="Helvetica" font-size="17" textLength="181">digitalocean_resource</text><rect width="113" height="39.789" x="144" y="7" fill="#3D176E" rx="2.5" ry="2.5" style="stroke:#000d19;stroke-width:.5"/><circle cx="159" cy="26.895" r="11" fill="#ADD1B2" style="stroke:#181818;stroke-width:1"/><path d="M161.969 32.535q-.578.297-1.219.438-.64.156-1.344.156-2.5 0-3.828-1.64-1.312-1.657-1.312-4.782t1.312-4.781q1.328-1.656 3.828-1.656.703 0 1.344.156.656.156 1.219.453v2.719q-.625-.578-1.219-.844-.594-.281-1.219-.281-1.344 0-2.031 1.078-.687 1.062-.687 3.156t.687 3.172q.688 1.062 2.031 1.062.625 0 1.219-.265.594-.281 1.219-.86z"/><text x="178" y="32.78" fill="#D9B8FF" font-family="Helvetica" font-size="17" textLength="71">resource</text><path fill="none" d="M306.718 222.812c-20.37 30.52-49.988 74.878-70.388 105.438m80.38-120.41-14.983 11.64 9.981 6.663z" style="stroke:#ffaf37;stroke-width:2"/><g fill="none"><path d="M198.644 65.07c-1.53 32.9-2.904 84.21 1.856 142.51 3.55 43.42 13.18 93.68 18.79 120.56" style="stroke:#ffaf37;stroke-width:2"/><path d="m199.48 47.09-6.83 17.702 11.987.557z" style="stroke:#ffaf37;stroke-width:2"/></g><path fill="none" d="M227.409 61.022c24.79 30.52 61.651 75.878 86.471 106.438M216.06 47.05l6.691 17.755 9.315-7.566z" style="stroke:#ffaf37;stroke-width:2"/></svg>
